!!!COM:	Bach, Johann Sebastian
!!!OMV:	Oh God, how many heart pains
!!!OTL:	Oh God, how many heart pains
**kern	**fb	**kern	**kern	**kern	**kern	**kern	**kern
*part7	*part7	*part6	*part5	*part4	*part3	*part2	*part1
*staff7	*	*staff6	*staff5	*staff4	*staff3	*staff2	*staff1
*I"Continuo	*	*I"Voice	*I"Voice	*I"Voice	*I"Voice	*I"Horn in G	*I"Horn in G
*I'Cont.	*	*I'V	*I'V	*I'V	*I'V	*I'G Hn.	*I'G Hn.
*clefF4	*	*clefF4	*clefGv2	*clefG2	*clefG2	*clefG2	*clefG2
*Trd0c0	*	*	*	*	*	*	*
*k[f#]	*	*k[f#]	*k[f#]	*k[f#]	*k[f#]	*k[f#]	*k[f#]
*M4/4	*	*M4/4	*M4/4	*M4/4	*M4/4	*M4/4	*M4/4
4F#	6	4F#	4d	4a	4dd	4a	4dd
=2	=2	=2	=2	=2	=2	=2	=2
4G	.	4G	4d	4g	4b	4b	8ddL
.	.	.	.	.	.	.	8ggJ
4A	6	4A	4f#	4cc	8aL	4a	8ff#L
.	.	.	.	.	8gJ	.	8ggJ
4B	6	4B	4g	4b	4dd	4g	8ddL
.	.	.	.	.	.	.	8ccJ
4G	.	4G	8gL	4b	8ddL	4g	8ddL
.	.	.	8dJ	.	16eeL	.	8bJ
.	.	.	.	.	16ffnJJ	.	.
=3	=3	=3	=3	=3	=3	=3	=3
2.c;	.	2.c;	2.c;	2.g;	2.ee;	2.g;	2.cc;
4C	.	4C	4G	4e	4ee	8ccL	4ee
.	.	.	.	.	.	8bJ	.
=4	=4	=4	=4	=4	=4	=4	=4
4D	.	4D	4d	4f#	4a	8aL	4dd
.	.	.	.	.	.	8gJ	.
8dL	.	8dL	4d	4f#	4a	4a	4dd
8cJ	.	8cJ	.	.	.	.	.
8BL	6	8BL	4d	4g	4dd	4g	8ddL
8A	.	8A	.	.	.	.	8ccJ
8G	5 4 2	8G	4d	4d	4cc	4d	8bL
8F#J	.	8F#J	.	.	.	.	8aJ
=5	=5	=5	=5	=5	=5	=5	=5
4G	.	4G	4.d	4g	4b	8dL	8gL
.	.	.	.	.	.	16BL	16aL
.	.	.	.	.	.	16GJJ	16bJJ
4D	.	4D	.	4f#	4a	4d	4cc
.	.	.	8A	.	.	.	.
4GG;	.	4GG;	4B;	4d;	4g;	4d;	4b;
4G	.	4G	4g	4b	4dd	4g	4b
=6	=6	=6	=6	=6	=6	=6	=6
!!pagebreak:original
4c	.	4c	4e	4g	4ee	8gL	8ccL
.	.	.	.	.	.	8b	8ddJ
4A	.	4A	4e	4a	4ee	8a	8ccL
.	.	.	.	.	.	8gJ	8bJ
4d	7 3	4d	4f#	8aL	4dd	8dL	8aL
.	6 4	.	.	8b	.	8BJ	8gJ
4D	5 4	4D	4f#	8a	16ccLL	4d	4a
.	.	.	.	.	16bJ	.	.
.	3	.	.	8dJ	8ccJ	.	.
=7	=7	=7	=7	=7	=7	=7	=7
2.G;	.	2.G;	2.g;	2.d;	2.b;	2.d;	2.g;
4F#	6	4F#	4d	4d	4a	4a	4dd
=8	=8	=8	=8	=8	=8	=8	=8
4G	.	4G	4d	4g	4b	4g	4dd
4E	#6\	4E	4G	4g	4cc#X	4g	4ee
4F#	6	4F#	4A	4f#	4dd	4d	4a
4G	6 5	4G	4e	4b	8eeL	4d	4b
.	.	.	.	.	16ff#L	.	.
.	.	.	.	.	16ggJJ	.	.
=9	=9	=9	=9	=9	=9	=9	=9
4A	6 4	4A	8eL	2a	4ff#	2a	8cc#X
.	.	.	8dJ	.	.	.	4dd
4AA	5 #	4AA	8gL	.	8eeL	.	.
.	.	.	8f#J	.	8ddJ	.	8cc#
4D;	.	4D;	4f#;	4a;	4dd;	4a;	4dd;
4F#	6	4F#	8dL	4a	4dd	4d	8aL
.	.	.	8AJ	.	.	.	16bL
.	.	.	.	.	.	.	16ccnJJ
=10	=10	=10	=10	=10	=10	=10	=10
4G	.	4G	8BL	4g	4dd	4G	8bL
.	.	.	8cJ	.	.	.	8aJ
8GGL	.	8GGL	4d	4g	4dd	4d	8bL
8AAJ	.	8AAJ	.	.	.	.	8ccJ
4BB	6	4BB	4d	8gL	4gg	8BL	4dd
.	.	.	.	8aJ	.	8dJ	.
4GG	nr7	4GG	4d	4b	8ffnL	4g	4b
.	.	.	.	.	8eeJ	.	.
=11	=11	=11	=11	=11	=11	=11	=11
2.C;	.	2.C;	2.c;	2.g;	2.ee;	2.g;	2.cc;
4G#X	6	4G#X	8eL	4e	4ee	4b	8bL
.	.	.	8BJ	.	.	.	16cc#XL
.	.	.	.	.	.	.	16ddJJ
=12	=12	=12	=12	=12	=12	=12	=12
!!pagebreak:original
4A	#	4A	8c#XL	4a	4ee	4a	8cc#XL
.	.	.	8dJ	.	.	.	8bJ
8AAL	.	8AAL	4e	4a	4ee	4a	8cc#L
8BBJ	.	8BBJ	.	.	.	.	8ddJ
4C#X	6	4C#X	4e	8aL	8ff#L	4a	4ee
.	.	.	.	8bJ	16ggL	.	.
.	.	.	.	.	16aaJJ	.	.
4AA	7 #	4AA	4e	4cc#X	8ggL	4a	4cc#
.	.	.	.	.	8ff#J	.	.
=13	=13	=13	=13	=13	=13	=13	=13
2.D;	.	2.D;	2.d;	2.a;	2.ff#;	2.a;	2.dd;
4G	.	4G	4d	4b	4dd	4g	4b
=14	=14	=14	=14	=14	=14	=14	=14
4c	.	4c	4c	4g	4ee	4g	4cc
4B	6	4B	4g	4b	4dd	4d	4g
4A	5	4A	8cL	4e	4ee	4a	4cc
.	.	.	8aJ	.	.	.	.
4D#X	6	4D#X	4f#	4b	4ff#	4a	4b
=15	=15	=15	=15	=15	=15	=15	=15
2.E;	.	2.E;	2.e;	2.b;	2.gg;	2.g;	2.b;
4F#	6	4F#	4A	4a	4dd	4a	8ddL
.	.	.	.	.	.	.	8ccJ
=16	=16	=16	=16	=16	=16	=16	=16
8GL	.	8GL	4d	8bL	4dd	4g	4b
8F#	.	8F#	.	8aJ	.	.	.
8E	6	8E	4e	4g	8ccL	4g	8ccL
8DJ	6 4	8DJ	.	.	8bJ	.	8ddJ
4C	6 5	4C	4e	8gL	4.a	8gL	8eeL
.	.	.	.	16f#L	.	16dL	16ff#L
.	.	.	.	16eJJ	.	16BJJ	16ggJJ
4D	.	4D	8dL	4f#	.	8dL	4ff#
.	.	.	8AJ	.	8g	16dL	.
.	.	.	.	.	.	16dJJ	.
=17	=17	=17	=17	=17	=17	=17	=17
2.GG;	.	2.GG;	2.B;	2.d;	2.g;	2.B;	2.gg;
=||	=||	=||	=||	=||	=||	=||	=||
*-	*-	*-	*-	*-	*-	*-	*-
!!!system-decoration: s1,s2,s3,s4,s5,s6,s7
